!!!COM: Clementi, Muzio
!!!CDT: 1752/01/23/-1832/03/10/
!!!ODT: ~1800///
!!!OTL: Sonata No. 5 in G Major, Op. 36, Mvmt. 1
!!!OPS: Op. 36
!!!ONM: No. 5
!!!OMV: 1. Presto
**kern	**kern	**dynam
*staff2	*staff1	*staff1/2
*Ipiano	*Ipiano	*Ipiano
*>[A,A,B,B]	*>[A,A,B,B]	*>[A,A,B,B]
*>A	*>A	*>A
*clefF4	*clefG2	*clefG2
*k[f#]	*k[f#]	*k[f#]
*G:	*G:	*G:
*M2/2	*M2/2	*M2/2
*MM200	*MM200	*MM200
.	aaq/	.
4r	12gg\L	.
.	12ff#\	.
.	12gg\J	.
=1	=1	=1
12G\L	4bb\	.
12B\	.	.
12d\J	.	.
12G\L	4bb\	.
12B\	.	.
12d\J	.	.
12G\L	4gg\	.
12B\	.	.
12d\J	.	.
.	aaq/	.
12G\L	12gg\L	.
12B\	12ff#\	.
12d\J	12gg\J	.
=2	=2	=2
12G\L	2ddd\	.
12B\	.	.
12d\J	.	.
12G\L	.	.
12B\	.	.
12d\J	.	.
12G\L	4bb\	.
12B\	.	.
12d\J	.	.
12G\L	4gg\	.
12B\	.	.
12d\J	.	.
=3	=3	=3
12G\L	4ccc\	.
12c\	.	.
12e\J	.	.
.	dddq/	.
12G\L	12ccc\L	.
12c\	12bb\	.
12e\J	12ccc\J	.
12G\L	4eee\	.
12c\	.	.
12e\J	.	.
12G\L	4eee\	.
12c\	.	.
12e\J	.	.
=4	=4	=4
12G\L	4ccc#\	.
12B\	.	.
12d\J	.	.
12G\L	4ddd\	.
12B\	.	.
12d\J	.	.
12G\L	4r	.
12B\	.	.
12d\J	.	.
.	aaq/	.
12G\L	12gg\L	.
12B\	12ff#\	.
12d\J	12gg\J	.
*clefG2	*	*
=5	=5	=5
12c/L	4aa\	.
12e/	.	.
12a/J	.	.
12c/L	4aa\	.
12e/	.	.
12a/J	.	.
12c/L	4ee\	.
12e/	.	.
12a/J	.	.
12c/L	4aa\	.
12e/	.	.
12a/J	.	.
=6	=6	=6
12B/L	2dd\	.
12d/	.	.
12g/J	.	.
12B/L	.	.
12d/	.	.
12g/J	.	.
12B/L	4gg\	.
12d/	.	.
12g/J	.	.
12B/L	4dd\	.
12d/	.	.
12g/J	.	.
*clefF4	*	*
=7	=7	=7
12F#\L	4cc\	.
12A\	.	.
12d\J	.	.
12F#\L	4cc\	.
12A\	.	.
12d\J	.	.
12G\L	4b\	.
12B\	.	.
12d\J	.	.
12G\L	4dd\	.
12B\	.	.
12d\J	.	.
=8	=8	=8
12D\L	(4dd\	.
12F#\	.	.
12A\J	.	.
12d\L	4a/)	.
12A\	.	.
12F#\J	.	.
4D\	4r	.
.	aq/	.
4r	12g/L	.
.	12f#/	.
.	12g/J	.
=9	=9	=9
12G\L	4b\	.
12B\	.	.
12d\J	.	.
12G\L	4b\	.
12B\	.	.
12d\J	.	.
12G\L	4g/	.
12B\	.	.
12d\J	.	.
.	aq/	.
12G\L	12g/L	.
12B\	12f#/	.
12d\J	12g/J	.
=10	=10	=10
12G\L	2dd\	.
12B\	.	.
12d\J	.	.
12G\L	.	.
12B\	.	.
12d\J	.	.
12G\L	4b\	.
12B\	.	.
12d\J	.	.
12G\L	4g/	.
12B\	.	.
12d\J	.	.
=11	=11	=11
12G\L	4cc\	.
12c\	.	.
12e\J	.	.
.	ddq/	.
12G\L	12cc\L	.
12c\	12b\	.
12e\J	12cc\J	.
12G\L	4ee\	.
12c\	.	.
12e\J	.	.
12G\L	4ee\	.
12c\	.	.
12e\J	.	.
=12	=12	=12
12G\L	4cc#\	.
12B\	.	.
12d\J	.	.
12G\L	4dd\	.
12B\	.	.
12d\J	.	.
12G\L	4r	.
12B\	.	.
12d\J	.	.
.	aaq/	.
12G\L	12gg\L	.
12B\	12ff#\	.
12d\J	12gg\J	.
=13	=13	=13
12G\L	4bb\	.
12c#\	.	.
12e\J	.	.
12G\L	4bb\	.
12c#\	.	.
12e\J	.	.
12G\L	4ee\	.
12c#\	.	.
12e\J	.	.
12G\L	4ee\	.
12c#\	.	.
12e\J	.	.
=14	=14	=14
12F#\L	2aa\	.
12A\	.	.
12d\J	.	.
12F#\L	.	.
12A\	.	.
12d\J	.	.
12F#\L	4ff#\	.
12A\	.	.
12d\J	.	.
12F#\L	4dd\	.
12A\	.	.
12d\J	.	.
=15	=15	=15
12G\L	4b\	.
12B\	.	.
12e\J	.	.
12G\L	4b\	.
12B\	.	.
12e\J	.	.
*clefG2	*	*
12A/L	4cc#\	.
12e/	.	.
12g/J	.	.
.	ddq/	.
12A/L	12cc#\L	.
12e/	12b\	.
12g/J	12cc#\J	.
=16	=16	=16
4d/ 4f#/	12dd\L	.
.	12ff#\	.
.	12aa\J	.
4r	12ddd\L	.
.	12ccc#\	.
.	12bb\J	.
2r	12aa\L	.
.	12gg\	.
.	12ff#\J	.
.	12ee\L	.
.	12dd\	.
.	12cc#\J	.
=17	=17	=17
4d/ 4g/	12b\L	.
.	12bb\	.
.	12aa\J	.
4d/ 4g/	12gg\L	.
.	12ff#\	.
.	12ee\J	.
4d/ 4e/	12dd\L	.
.	12cc#\	.
.	12b\J	.
4d/ 4e/	12a\L	.
.	12b\	.
.	12cc#\J	.
=18	=18	=18
4d/ 4f#/	12dd\L	.
.	12ff#\	.
.	12aa\J	.
4r	12ddd\L	.
.	12ccc#\	.
.	12bb\J	.
2r	12aa\L	.
.	12gg\	.
.	12ff#\J	.
.	12ee\L	.
.	12dd\	.
.	12cc#\J	.
=19	=19	=19
4d/ 4g/	12b\L	.
.	12bb\	.
.	12aa\J	.
4d/ 4g/	12gg\L	.
.	12ff#\	.
.	12ee\J	.
4d/ 4e/	12dd\L	.
.	12cc#\	.
.	12b\J	.
4d/ 4e/	12a\L	.
.	12b\	.
.	12cc#\J	.
=20	=20	=20
4d/ 4f#/	12dd\L	.
.	12ee\	.
.	12ff#\J	.
4r	12dd\L	.
.	12ee\	.
.	12ff#\J	.
*clefF4	*	*
4FF#/ 4F#/	12dd\L	.
.	12ee\	.
.	12ff#\J	.
4FF#/ 4F#/	12dd\L	.
.	12ee\	.
.	12ff#\J	.
=21	=21	=21
4GG/ 4G/	12dd\L	.
.	12ee\	.
.	12ff#\J	.
4GG/ 4G/	12dd\L	.
.	12ee\	.
.	12ff#\J	.
4GG#/ 4G#/	12dd\L	.
.	12ee\	.
.	12ff#\J	.
4GG#/ 4G#/	12dd\L	.
.	12ee\	.
.	12ff#\J	.
=22	=22	=22
1AA 1A	12dd\L	.
.	12ff#\	.
.	12aa\J	.
.	12ggn\L	.
.	12ff#\	.
.	12ee\J	.
.	12dd\L	.
.	12cc#\	.
.	12b\J	.
.	12a/L	.
.	12g/	.
.	12f#/J	.
=23	=23	=23
12AA/L	1e	.
12C#/	.	.
12G/J	.	.
12AA/L	.	.
12C#/	.	.
12G/J	.	.
12AA/L	.	.
12C#/	.	.
12G/J	.	.
12AA/L	.	.
12C#/	.	.
12G/J	.	.
=24	=24	=24
4D\ 4F#\	12d/L	.
.	12f#/	.
.	12a/J	.
4r	12f#/L	.
.	12a/	.
.	12dd/J	.
4r	12b/L	p
.	12a/	.
.	12dd/J	.
4d\	12f#/L	.
.	12a/	.
.	12dd/J	.
=25	=25	=25
4B\	12g#\L	.
.	12b\	.
.	12dd\J	.
4B\	12g#\L	.
.	12b\	.
.	12dd\J	.
4e\	12g#\L	.
.	12b\	.
.	12dd\J	.
4e\	12g#\L	.
.	12b\	.
.	12dd\J	.
=26	=26	=26
2A\	12gn/L	.
.	12a/	.
.	12cc#/J	.
.	12g/L	.
.	12a/	.
.	12cc#/J	.
4d\	12f#/L	.
.	12a/	.
.	12dd/J	.
4d\	12f#/L	.
.	12a/	.
.	12dd/J	.
=27	=27	=27
4G\	12e/L	.
.	12g/	.
.	12b/J	.
4G\	12e/L	.
.	12g/	.
.	12b/J	.
4A\	12c#/L	.
.	12e/	.
.	12a/J	.
4A\	12c#/L	.
.	12e/	.
.	12a/J	.
=28	=28	=28
4D\ 4F#\	12d/L	.
.	12f#/	.
.	12a/J	.
4r	12f#/L	.
.	12a/	.
.	12dd/J	.
4r	12f#/L	.
.	12a/	.
.	12dd/J	.
4D\	12f#/L	.
.	12a/	.
.	12dd/J	.
=29	=29	=29
4BB/	12g#\L	.
.	12b\	.
.	12dd\J	.
4BB/	12g#\L	.
.	12b\	.
.	12dd\J	.
4E\	12g#\L	.
.	12b\	.
.	12dd\J	.
4E\	12g#\L	.
.	12b\	.
.	12dd\J	.
=30	=30	=30
2AA/	12gn/L	.
.	12a/	.
.	12cc#/J	.
.	12g/L	.
.	12a/	.
.	12cc#/J	.
4D\	12f#/L	.
.	12a/	.
.	12dd/J	.
4D\	12f#/L	.
.	12a/	.
.	12dd/J	.
=31	=31	=31
4GG/ 4G/	12e/L	.
.	12g/	.
.	12b/J	.
4GG/ 4G/	12e/L	.
.	12g/	.
.	12b/J	.
4AA\ 4A\	12c#/L	.
.	12e/	.
.	12a/J	.
4AA\ 4A\	12c#/L	.
.	12e/	.
.	12a/J	.
=32	=32	=32
12D\L	4d/	.
12F#\	.	.
12A\J	.	.
12D\L	4r	.
12F#\	.	.
12A\J	.	.
12D\L	4r	.
12F#\	.	.
12A\J	.	.
.	bq/	.
12C#\L	12a/L	.
12E\	12g#/	.
12A\J	12a/J	.
=33	=33	=33
12D\L	4f#/ 4dd/	.
12F#\	.	.
12A\J	.	.
12D\L	4r	.
12F#\	.	.
12A\J	.	.
12D\L	4r	.
12F#\	.	.
12A\J	.	.
.	bq/	.
12C#\L	12a/L	.
12E\	12g#/	.
12A\J	12a/J	.
=34	=34	=34
12D\L	4f#/ 4dd/	.
12F#\	.	.
12A\J	.	.
12D\L	4r	.
12F#\	.	.
12A\J	.	.
4D\	4r	.
=:|!|:	=:|!|:	=:|!|:
*>B	*>B	*>B
.	eeq/	.
4r	12dd\L	p
.	12cc#\	.
.	12dd\J	.
*clefG2	*	*
=35	=35	=35
12cn/L	4aa\	.
12f#/	.	.
12a/J	.	.
12c/L	4aa\	.
12f#/	.	.
12a/J	.	.
12c/L	4ff#\	.
12f#/	.	.
12a/J	.	.
12c/L	4dd\	.
12f#/	.	.
12a/J	.	.
=36	=36	=36
12B-/L	2ddd\	.
12d/	.	.
12g/J	.	.
12B-/L	.	.
12d/	.	.
12g/J	.	.
12B-/L	4bb-\	.
12d/	.	.
12g/J	.	.
12B-/L	4gg\	.
12d/	.	.
12g/J	.	.
*clefF4	*	*
=37	=37	=37
12A\L	4ff#\	.
12c\	.	.
12d\J	.	.
.	ggq/	.
12A\L	12ff#\L	.
12c\	12ee\	.
12d\J	12ff#\J	.
12G\L	4gg\	.
12B-\	.	.
12d\J	.	.
12G\L	4ee-\	.
12B-\	.	.
12d\J	.	.
=38	=38	=38
12F#\L	4cc#\	.
12A\	.	.
12d\J	.	.
12F#\L	2dd\	.
12A\	.	.
12d\J	.	.
12F#\L	.	.
12A\	.	.
12d\J	.	.
.	ee-q/	.
12F#\L	4cc#\	.
12A\	.	.
12d\J	.	.
=39	=39	=39
12Fn\L	4ee-\	.
12A\	.	.
12c\J	.	.
12F\L	4ee-\	.
12A\	.	.
12c\J	.	.
12F\L	4ccn\	.
12A\	.	.
12c\J	.	.
12F\L	4a/	.
12A\	.	.
12c\J	.	.
=40	=40	=40
12Fn\L	4gg\	.
12B-\	.	.
12d\J	.	.
12F\L	4ffn\	.
12B-\	.	.
12d\J	.	.
12F\L	4dd\	.
12B-\	.	.
12d\J	.	.
12F\L	4b-\	.
12B-\	.	.
12d\J	.	.
=41	=41	=41
12Fn\L	4g/	.
12c\	.	.
12e-\J	.	.
12F\L	4cc\	.
12c\	.	.
12e-\J	.	.
12F\L	4a/	.
12c\	.	.
12e-\J	.	.
12F\L	4fn/	.
12c\	.	.
12e-\J	.	.
=42	=42	=42
4B-\	12b-/L	.
.	12fn/	.
.	12d/J	.
4r	12b-/L	.
.	12f/	.
.	12d/J	.
4r	12b-/L	.
.	12f/	.
.	12d/J	.
4A-\	12b-/L	.
.	12f/	.
.	12d/J	.
=43	=43	=43
4G\	12bn/L	.
.	12fn/	.
.	12d/J	.
4G\	12b/L	.
.	12f/	.
.	12d/J	.
4GG/	12b/L	.
.	12f/	.
.	12d/J	.
4GG/	12b/L	.
.	12f/	.
.	12d/J	.
=44	=44	=44
2CC/ 2C/	12r	.
.	12c/L	.
.	12e-/J	.
.	12g/L	.
.	12e-/	.
.	12g/J	.
4r	12cc/L	.
.	12g/	.
.	12e-/J	.
4B-\	12cc/L	.
.	12g/	.
.	12e-/J	.
=45	=45	=45
4An\	12cc#/L	.
.	12g/	.
.	12en/J	.
4A\	12cc#/L	.
.	12g/	.
.	12e/J	.
4AA/	12cc#/L	.
.	12g/	.
.	12e/J	.
4AA/	12cc#/L	.
.	12g/	.
.	12e/J	.
=46	=46	=46
1DD 1D	12r	.
.	12d/L	ff
.	12f#/J	.
.	12a/L	.
.	12f#/	.
.	12a/J	.
.	12dd/L	.
.	12a/	.
.	12f#/J	.
.	12a/L	.
.	12f#/	.
.	12d/J	.
=47	=47	=47
1DD 1D	12r	.
.	12d/L	.
.	12g/J	.
.	12b-/L	.
.	12g/	.
.	12b-/J	.
.	12dd\L	.
.	12b-\	.
.	12g\J	.
.	12b-/L	.
.	12g/	.
.	12d/J	.
=48	=48	=48
1DD 1D	12r	.
.	12d/L	.
.	12e/J	.
.	12f#/L	.
.	12g/	.
.	12a/J	.
.	12bn\L	.
.	12cc#\	.
.	12dd\J	.
.	12ee\L	.
.	12ff#\	.
.	12gg\J	.
=49	=49	=49
2r	12aa\L	.
.	12bb\	.
.	12ccc#\J	.
.	12ddd\L	.
.	12aa\	.
.	12ff#\J	.
4r	12dd/L	.
.	12a/	.
.	12f#/J	.
12d\L	4r	.
12A\	.	.
12F#\J	.	.
=50	=50	=50
2.D\	2r	.
.	4r	.
.	aaq/	.
4r	12gg\L	.
.	12ff#\	.
.	12gg\J	.
=51	=51	=51
12G\L	4bb\	.
12B\	.	.
12d\J	.	.
12G\L	4bb\	.
12B\	.	.
12d\J	.	.
12G\L	4gg\	.
12B\	.	.
12d\J	.	.
.	aaq/	.
12G\L	12gg\L	.
12B\	12ff#\	.
12d\J	12gg\J	.
=52	=52	=52
12G\L	2ddd\	.
12B\	.	.
12d\J	.	.
12G\L	.	.
12B\	.	.
12d\J	.	.
12G\L	4bb\	.
12B\	.	.
12d\J	.	.
12G\L	4gg\	.
12B\	.	.
12d\J	.	.
=53	=53	=53
12G\L	4ccc\	.
12c\	.	.
12e\J	.	.
.	dddq/	.
12G\L	12ccc\L	.
12c\	12bb\	.
12e\J	12ccc\J	.
12G\L	4eee\	.
12c\	.	.
12e\J	.	.
12G\L	4eee\	.
12c\	.	.
12e\J	.	.
=54	=54	=54
12G\L	(4ccc#\	.
12B\	.	.
12d\J	.	.
12G\L	4ddd\)	.
12B\	.	.
12d\J	.	.
12G\L	4r	.
12B\	.	.
12d\J	.	.
.	aaq/	.
12G\L	12gg\L	.
12B\	12ff#\	.
12d\J	12gg\J	.
*clefG2	*	*
=55	=55	=55
12c/L	4aa\	.
12e/	.	.
12a/J	.	.
12c/L	4aa\	.
12e/	.	.
12a/J	.	.
12c/L	4ee\	.
12e/	.	.
12a/J	.	.
12c/L	4aa\	.
12e/	.	.
12a/J	.	.
=56	=56	=56
12B/L	2dd\	.
12d/	.	.
12g/J	.	.
12B/L	.	.
12d/	.	.
12g/J	.	.
12B/L	4gg\	.
12d/	.	.
12g/J	.	.
12B/L	4dd\	.
12d/	.	.
12g/J	.	.
*clefF4	*	*
=57	=57	=57
12F#\L	4cc\	.
12A\	.	.
12d\J	.	.
12F#\L	4cc\	.
12A\	.	.
12d\J	.	.
12G\L	4b\	.
12B\	.	.
12d\J	.	.
12G\L	4dd\	.
12B\	.	.
12d\J	.	.
=58	=58	=58
12D\L	4dd\	.
12F#\	.	.
12A\J	.	.
12d\L	4a/	.
12A\	.	.
12F#\J	.	.
4D\	4r	.
.	aq/	.
4r	12g/L	.
.	12f#/	.
.	12g/J	.
=59	=59	=59
12G\L	4b\	.
12B\	.	.
12d\J	.	.
12G\L	4b\	.
12B\	.	.
12d\J	.	.
12G\L	4g/	.
12B\	.	.
12d\J	.	.
.	aq/	.
12G\L	12g/L	.
12B\	12f#/	.
12d\J	12g/J	.
=60	=60	=60
12G\L	2dd\	.
12B\	.	.
12d\J	.	.
12G\L	.	.
12B\	.	.
12d\J	.	.
12G\L	4b\	.
12B\	.	.
12d\J	.	.
12G\L	4g/	.
12B\	.	.
12d\J	.	.
=61	=61	=61
12G\L	4cc\	.
12c\	.	.
12e\J	.	.
.	ddq/	.
12G\L	12cc\L	.
12c\	12b\	.
12e\J	12cc\J	.
12G\L	4ee\	.
12c\	.	.
12e\J	.	.
12G\L	4ee\	.
12c\	.	.
12e\J	.	.
=62	=62	=62
12G\L	4cc#\	.
12B\	.	.
12d\J	.	.
12G\L	4dd\	.
12B\	.	.
12d\J	.	.
12G\L	4r	.
12B\	.	.
12d\J	.	.
.	ggq/	.
12G\L	12ffn\L	.
12B\	12ee\	.
12d\J	12ff\J	.
=63	=63	=63
12Fn\L	4aa\	f
12B\	.	.
12d\J	.	.
12F\L	4aa\	.
12B\	.	.
12d\J	.	.
12F\L	4dd\	.
12B\	.	.
12d\J	.	.
12F\L	4dd\	.
12B\	.	.
12d\J	.	.
=64	=64	=64
12E\L	2gg\	.
12G\	.	.
12c\J	.	.
12E\L	.	.
12G\	.	.
12c\J	.	.
12E\L	4ee\	.
12G\	.	.
12B-\J	.	.
12E\L	4cc#\	.
12G\	.	.
12B-\J	.	.
=65	=65	=65
12D\L	4dd\	p
12G\	.	.
12Bn\J	.	.
12D\L	4dd\	.
12G\	.	.
12B\J	.	.
12D\L	4f#/	.
12A\	.	.
12c\J	.	.
.	gq/	.
12D\L	12f#/L	.
12A\	12e/	.
12c\J	12f#/J	.
=66	=66	=66
4G\ 4B\	12g\L	.
.	12b\	.
.	12dd\J	.
4r	12gg\L	.
.	12ff#\	.
.	12ee\J	.
2r	12dd\L	.
.	12cc\	.
.	12b\J	.
.	12a/L	.
.	12g/	.
.	12f#/J	.
=67	=67	=67
4G\ 4c\	12e\L	.
.	12ee\	.
.	12dd\J	.
4G\ 4c\	12cc\L	.
.	12b\	.
.	12a\J	.
4G\ 4A\	12g/L	.
.	12f#/	.
.	12e/J	.
4G\ 4A\	12d/L	.
.	12e/	.
.	12f#/J	.
=68	=68	=68
4G\ 4B\	12g\L	.
.	12b\	.
.	12cc\J	.
4r	12gg\L	.
.	12ff#\	.
.	12ee\J	.
2r	12dd\L	.
.	12cc\	.
.	12b\J	.
.	12a/L	.
.	12g/	.
.	12f#/J	.
=69	=69	=69
4G\ 4c\	12e\L	.
.	12ee\	.
.	12dd\J	.
4G\ 4c\	12cc\L	.
.	12b\	.
.	12a\J	.
4G\ 4A\	12g/L	.
.	12f#/	.
.	12e/J	.
4G\ 4A\	12d/L	.
.	12e/	.
.	12f#/J	.
=70	=70	=70
4G\ 4B\	12g/L	.
.	12a/	.
.	12b/J	.
4r	12g/L	.
.	12a/	.
.	12b/J	.
4BBB/ 4BB/	12g/L	f
.	12a/	.
.	12b/J	.
4BBB/ 4BB/	12g/L	.
.	12a/	.
.	12b/J	.
=71	=71	=71
4CC/ 4C/	12g/L	.
.	12a/	.
.	12b/J	.
4CC/ 4C/	12g/L	.
.	12a/	.
.	12b/J	.
4CC#/ 4C#/	12g/L	.
.	12a/	.
.	12b/J	.
4CC#/ 4C#/	12g/L	.
.	12a/	.
.	12b/J	.
=72	=72	=72
1DD 1D	12r	.
.	12bb\L	.
.	12ddd\J	.
.	12ccc\L	.
.	12bb\	.
.	12aa\J	.
.	12gg\L	.
.	12ff#\	.
.	12ee\J	.
.	12dd\L	.
.	12cc\	.
.	12b\J	.
=73	=73	=73
12D\L	1a	.
12F#\	.	.
12c\J	.	.
12D\L	.	.
12F#\	.	.
12c\J	.	.
12D\L	.	.
12F#\	.	.
12c\J	.	.
12D\L	.	.
12F#\	.	.
12c\J	.	.
=74	=74	=74
4G\ 4B\	12g\L	>
.	12b\	.
.	12dd\J	.
4r	12b\L	.
.	12dd\	.
.	12gg\J	.
4r	12b\L	.
.	12dd\	.
.	12gg\J	.
*clefG2	*	*
4g/	12b\L	p
.	12dd\	.
.	12gg\J	.
=75	=75	=75
4e/	12cc#\L	.
.	12ee\	.
.	12gg\J	.
4e/	12cc#\L	.
.	12ee\	.
.	12gg\J	.
4a/	12cc#\L	.
.	12ee\	.
.	12gg\J	.
4a/	12cc#\L	.
.	12ee\	.
.	12gg\J	.
=76	=76	=76
2d/	12ccn\L	.
.	12dd\	.
.	12ff#\J	.
.	12cc\L	.
.	12dd\	.
.	12ff#\J	.
4g/	12b\L	.
.	12dd\	.
.	12gg\J	.
4g/	12b\L	.
.	12dd\	.
.	12gg\J	.
=77	=77	=77
4c/	12a\L	.
.	12cc\	.
.	12ee\J	.
4c/	12a\L	.
.	12cc\	.
.	12ee\J	.
4d/	12f#/L	.
.	12a/	.
.	12dd/J	.
4d/	12f#/L	.
.	12a/	.
.	12dd/J	.
=78	=78	=78
4G/ 4B/	12g\L	.
.	12b\	.
.	12dd\J	.
4r	12b\L	.
.	12dd\	.
.	12gg\J	.
4r	12b\L	.
.	12dd\	.
.	12gg\J	.
*clefF4	*	*
4G\	12b\L	.
.	12dd\	.
.	12gg\J	.
=79	=79	=79
4E\	12cc#\L	.
.	12ee\	.
.	12gg\J	.
4E\	12cc#\L	.
.	12ee\	.
.	12gg\J	.
4A\	12cc#\L	.
.	12ee\	.
.	12gg\J	.
4A\	12cc#\L	.
.	12ee\	.
.	12gg\J	.
=80	=80	=80
2D\	12ccn\L	f
.	12dd\	.
.	12ff#\J	.
.	12cc\L	.
.	12dd\	.
.	12ff#\J	.
4G\	12b\L	.
.	12dd\	.
.	12gg\J	.
4G\	12b\L	.
.	12dd\	.
.	12gg\J	.
=81	=81	=81
4C\ 4c\	12a\L	.
.	12cc#\	.
.	12ee\J	.
4C\ 4c\	12a\L	.
.	12cc#\	.
.	12ee\J	.
4D\ 4d\	12f#/L	.
.	12a/	.
.	12dd/J	.
4D\ 4d\	12f#/L	.
.	12a/	.
.	12dd/J	.
=82	=82	=82
12G\L	4g/	.
12B\	.	.
12d\J	.	.
12G\L	4r	.
12B\	.	.
12d\J	.	.
12G\L	4r	.
12B\	.	.
12d\J	.	.
.	eeq/	.
12F#\L	4cc#\	.
12A\	.	.
12d\J	.	.
=83	=83	=83
12G\L	4b\ 4gg\	.
12B\	.	.
12d\J	.	.
12G\L	4r	.
12B\	.	.
12d\J	.	.
12G\L	4r	.
12B\	.	.
12d\J	.	.
.	eeq/	.
12F#\L	4cc#\	.
12A\	.	.
12d\J	.	.
=84	=84	=84
12G\L	4b\ 4gg\	.
12B\	.	.
12d\J	.	.
12G\L	4r	.
12B\	.	.
12d\J	.	.
4G\	4r	.
==:|!	==:|!	==:|!
*-	*-	*-
!!!ENC: Craig Stuart Sapp
!!!END: 2004/11/26/
